dist/images/icons/heart.svg

<svg width="20" height="20" viewBox="0 0 20 20" fill="none" xmlns="http://www.w3.org/2000/svg">
<g clip-path="url(#clip0_2009_5136)">
<path d="M9.99958 18.7936C9.71482 18.7936 9.44037 18.6904 9.22642 18.503C8.41845 17.7966 7.63951 17.1327 6.95225 16.547L6.94873 16.544C4.93381 14.8269 3.19385 13.3441 1.98323 11.8833C0.629953 10.2504 -0.000396729 8.70205 -0.000396729 7.0106C-0.000396729 5.36725 0.563118 3.85112 1.5862 2.74136C2.62151 1.61847 4.0421 1.00003 5.58674 1.00003C6.74123 1.00003 7.79849 1.36503 8.72916 2.08479C9.1988 2.44807 9.62451 2.89272 9.99958 3.41135C10.3748 2.89272 10.8004 2.44807 11.2702 2.08479C12.2008 1.36503 13.2581 1.00003 14.4126 1.00003C15.9571 1.00003 17.3778 1.61847 18.4131 2.74136C19.4362 3.85112 19.9996 5.36725 19.9996 7.0106C19.9996 8.70201 19.3694 10.2504 18.0161 11.8832C16.8054 13.3441 15.0656 14.8268 13.051 16.5437C12.3625 17.1302 11.5824 17.7952 10.7726 18.5034C10.5586 18.6905 10.2839 18.7937 9.99958 18.7936ZM5.58674 2.17159C4.37323 2.17159 3.25842 2.65593 2.44741 3.53542C1.62437 4.42823 1.17101 5.66237 1.17101 7.0106C1.17101 8.43318 1.69972 9.70544 2.88518 11.1358C4.03096 12.5184 5.73522 13.9707 7.70849 15.6524L7.71213 15.6555C8.40197 16.2434 9.184 16.9099 9.9979 17.6216C10.8167 16.9085 11.5999 16.2409 12.2911 15.6521C14.2643 13.9704 15.9684 12.5184 17.1141 11.1358C18.2994 9.70544 18.8282 8.43318 18.8282 7.0106C18.8282 5.66233 18.3748 4.42819 17.5518 3.53542C16.7409 2.65593 15.626 2.17159 14.4126 2.17159C13.5236 2.17159 12.7074 2.45421 11.9867 3.01143C11.3445 3.50827 10.8971 4.13631 10.6348 4.57577C10.4999 4.80174 10.2625 4.93662 9.99958 4.93662C9.73665 4.93662 9.49923 4.80174 9.36435 4.57577C9.10224 4.13631 8.65482 3.50827 8.0124 3.01143C7.29178 2.45421 6.47557 2.17159 5.58674 2.17159Z" fill="#2B2A29"/>
</g>
<defs>
<clipPath id="clip0_2009_5136">
<rect width="20" height="20" fill="white" transform="translate(-0.000396729)"/>
</clipPath>
</defs>
</svg>

<svg width="20" height="20" fill="none" xmlns="http://www.w3.org/2000/svg"><g clip-path="url(#clip0_2009_5136)"><path d="M10 18.794c-.285 0-.56-.104-.774-.291-.808-.706-1.586-1.37-2.274-1.956l-.003-.003c-2.015-1.717-3.755-3.2-4.966-4.66C.63 10.25 0 8.701 0 7.01c0-1.644.563-3.16 1.586-4.27a5.378 5.378 0 014-1.741A5.03 5.03 0 018.73 2.085c.47.363.896.808 1.27 1.326a6.43 6.43 0 011.271-1.326A5.03 5.03 0 0114.413 1c1.544 0 2.965.618 4 1.741C19.436 3.851 20 5.367 20 7.011c0 1.691-.63 3.24-1.984 4.872-1.21 1.461-2.95 2.944-4.965 4.66-.688.587-1.469 1.252-2.278 1.96-.214.188-.49.29-.773.29zM5.587 2.172a4.22 4.22 0 00-3.14 1.363c-.823.893-1.276 2.127-1.276 3.476 0 1.422.529 2.694 1.714 4.125 1.146 1.382 2.85 2.835 4.823 4.516l.004.004c.69.587 1.472 1.254 2.286 1.966a272.39 272.39 0 012.293-1.97c1.973-1.682 3.677-3.134 4.823-4.516 1.185-1.43 1.714-2.703 1.714-4.125 0-1.349-.453-2.583-1.276-3.476a4.22 4.22 0 00-3.14-1.363 3.88 3.88 0 00-2.425.84c-.643.496-1.09 1.124-1.352 1.564a.734.734 0 01-.635.36.734.734 0 01-.636-.36c-.262-.44-.71-1.068-1.352-1.565a3.885 3.885 0 00-2.425-.84z" fill="#2B2A29"/></g><defs><clipPath id="clip0_2009_5136"><path fill="#fff" d="M0 0h20v20H0z"/></clipPath></defs></svg>
